X:1
T:Morrison's
K:Dmix
R:jig
M:6/8
O:Trad. (4.11.2015/NS)
K:Edor
|:"Em"E2E B2B|EBE "D"AFD |"Em"EDE B3|"D"dcB AFD|
"Em"E2E B2B|EBE "D"AFD|"G"G3 FGA|"D"dAG FED:|
"Em"Bee fee|bee "D"fee|"Em"Bee fee|"D"fag fed|
"Em"Bee fee|bee "D"fee|"C"gfe d2A|"Bm"BAG FED|
"Em"Bee fee|bee "D"fee|"Em"Bee fee|"D"faf def|
"G"g3 gfe|def g2d|"D"edc d2A|"Bm"BAG FED||

